X: 26948
T: Miss Campbell's
R: reel
M: 4/4
K: Dmixolydian
DE|F2 DE FGAd|cBcG ECCE|FEDE FGAg|fdec dDDE|
F2 DE FGAd|cBcG ECCE|F2 DE FGAg|fdec dDDg||
fdad bdad|ecgc efga|fdad ecgc|fdec dDDg|
fd d2 bdad|ec c2 efga|fdAd cAGc|AFGE FDDE||

